!!!!SEGMENT: pl-kk--kk-i-2--051-005_pekiel-bartlomiej--missa-brevis-benedictus.krn
!!!cenid: 16xx:1733
!!!COM: Pękiel, Bartłomiej
!!!COM-rismID: pe30105642
!!!CDT: <1633-~1670
!!!CNT: Polish
!!!OPR: Missa Brevis
!!!OTL: Benedictus
!!!OMV: 005
!!!PDT: 1661
!!!AGN: Sacred; Mass
!!!SMS-siglum: PL-Kk
!!!SMS-shelfmark: Kk.I.2
!!!SMS-shelfwork: 051-005 M
!!!NIFC-rismSourceID: 300258069
!!!NIFC-islandoraID: pl-kk:750
!!!URL-pdf-islandora: https://repozytorium.nifc.pl/islandora/object/pl-kk%3A750/datastream/PDF/view#page=87
!!!URL-scan: https://polish.musicsources.pl/pl/lokalizacje/galeria/rekopisy/5828 @EN{Scan on Polish Music Sources Website} @PL{Skany w portalu Dziedzictwo Muzyki Polskiej w otwartym dostępie}
!!!ONB-nifc: Części mszy: Kyrie, Gloria, Credo, Sanctus, Benedictus, Agnus Dei; skany: C: 0090-0091; A: 0194-0195; T: 0293; B: 0395
!!!AIN: 1 alto 1 bass 1 soprn 1 tenor
!!!key: g:dor
**kern	**text	**kern	**text	**kern	**text	**kern	**text
*part4	*part4	*part3	*part3	*part2	*part2	*part1	*part1
*staff4	*staff4	*staff3	*staff3	*staff2	*staff2	*staff1	*staff1
*I"BASVS	*	*I"TENOR	*	*I"ALTVS	*	*I"DISCANTVS	*
*mI"Basso	*	*mI"Tenore II	*	*mI"Tenore I	*	*mI"Alto	*
*I'B	*	*I'T	*	*I'A	*	*I'S	*
*	*	*mI'T 2	*	*mI'T 1	*	*mI'A	*
*Ibass	*	*Itenor	*	*Ialto	*	*Isoprn	*
*ICvox	*	*ICvox	*	*ICvox	*	*ICvox	*
*clefF4	*	*clefC4	*	*clefC4	*	*clefC3	*
*	*	*mclefGv2	*	*mclefGv2	*	*mclefGv2	*
*k[b-]	*	*k[b-]	*	*k[b-]	*	*k[b-]	*
*g:dor	*	*g:dor	*	*g:dor	*	*g:dor	*
*M2/1	*	*M2/1	*	*M2/1	*	*M2/1	*
*met(C|)	*	*met(C|)	*	*met(C|)	*	*met(C|)	*
*mmet(c|)	*	*mmet(c|)	*	*mmet(c|)	*	*mmet(c|)	*
!LO:MO:mod=*null:null	!	!LO:MO:mod=*null:null	!	!LO:MO:mod=*null:null	!	!LO:MO:mod=*null:null	!
*all\right	*	*all\right	*	*all\right	*	*all\right	*
=1-	=1-	=1-	=1-	=1-	=1-	=1-	=1-
!	!	!	!	!LO:TX:t=P:problem:kreska pseudotaktowa	!	!LO:TX:t=P:problem:kreska pseudotaktowa	!
00r	.	1.d	Be-	0r	.	00r	.
!	!	!LO:TX:t=P:problem:kreska pseudotaktowa	!	!	!	!	!
.	.	2A/	-ne-	.	.	.	.
=2-	=2-	=2-	=2-	=2-	=2-	=2-	=2-
.	.	1B-	-dic-	1.d	Be-	.	.
.	.	2F#X/	-tus	.	.	.	.
!	!	!	!	!LO:TX:t=P:problem:kreska pseudotaktowa	!	!	!
!	!	!LO:TX:t=P:problem:kreska pseudotaktowa	!	!	!	!	!
.	.	2F#/	qui	2A/	-ne-	.	.
=3-	=3-	=3-	=3-	=3-	=3-	=3-	=3-
!LO:TX:t=P:problem:kreska pseudotaktowa	!	!	!	!	!	!	!
00r	.	1G	ve-	1B-	-dic-	1.d	Be-
!	!	!LO:TX:t=P:problem:kreska pseudotaktowa	!	!	!	!	!
.	.	1A	-nit	2F#X/	-tus	.	.
!	!	!	!	!	!	!LO:TX:t=P:problem:kreska pseudotaktowa	!
!	!	!	!	!LO:TX:t=P:problem:kreska pseudotaktowa	!	!	!
.	.	.	.	2F#/	qui	2A/	-ne-
=4-	=4-	=4-	=4-	=4-	=4-	=4-	=4-
.	.	00r	.	1G	ve-	1B-	-dic-
!	!	!	!	!	!	!	!LO:MO:mod=-tus
.	.	.	.	2A/	-nit	2F#X/	-t(us)
!	!	!	!	!LO:TX:t=P:problem:kreska pseudotaktowa	!	!LO:TX:t=P:problem:kreska pseudotaktowa	!
.	.	.	.	2A/	qui	2F#/	qui
=5-	=5-	=5-	=5-	=5-	=5-	=5-	=5-
1.G	Be-	.	.	4B-\	Ve-	4G/	ve-
.	.	.	.	4c\	.	4A/	.
.	.	.	.	4d\	.	4B-/	.
!	!	!	!	!LO:TX:t=P:problem:kreska pseudotaktowa	!	!LO:TX:t=P:problem:kreska pseudotaktowa	!
.	.	.	.	4c\	.	4c/	.
!	!	!	!	!LO:MO:mod=*null:null	!	!	!
*	*	*	*	*2\right	*	*	*
.	.	.	.	2B-\	.	4d\	.
.	.	.	.	.	.	4e\	.
!	!	!	!	!	!	!LO:MO:mod=*null:null	!
*	*	*	*	*	*	*2\right	*
2D/	-ne-	.	.	2A/	.	2f\	.
=6-	=6-	=6-	=6-	=6-	=6-	=6-	=6-
!	!	!	!	!LO:TX:t=P:problem:kreska pseudotaktowa	!	!	!
1E-X	-dic-	00r	.	0G	.	2e-X\	nit
*	*	*	*	*	*	*	*ij
.	.	.	.	.	.	1g	Be-
!LO:MO:mod=!null:null	!	!	!	!	!	!	!
!LO:N:acc=#	!LO:MO:mod=-tus	!	!	!	!	!	!
2BBn/	-t(us)	.	.	.	.	.	.
!LO:TX:t=P:problem:kreska pseudotaktowa	!	!	!	!	!	!LO:TX:t=P:problem:kreska pseudotaktowa	!
2BB/	qui	.	.	.	.	2d\	-ne-
=7-	=7-	=7-	=7-	=7-	=7-	=7-	=7-
1C	ve-	.	.	1G	-nit	1e-X	-dic-
!	!	!	!	!	!	!LO:MO:mod=!null:null	!
!	!	!	!	!LO:TX:t=P:problem:kreska pseudotaktowa	!	!LO:N:acc=#	!LO:MO:mod=-tus
1D	-nit	.	.	1Fny	qui	2Bn/	-t(us)
!	!	!	!	!	!	!LO:TX:t=P:problem:kreska pseudotaktowa	!
.	.	.	.	.	.	2B/	qui
=8-	=8-	=8-	=8-	=8-	=8-	=8-	=8-
!LO:MO:mod=*null:null	!	!	!	!	!	!	!
*2\right	*	*	*ij	*	*	*	*
2Eny\	qui	1.c	Be-	2G/	ve-	4c/	ve-
.	.	.	.	.	.	4B-y/	.
1F	ve-	.	.	4A/	.	4A/	.
!	!	!	!	!LO:TX:t=P:problem:kreska pseudotaktowa	!	!	!
.	.	.	.	4B-\	.	8G/L	.
.	.	.	.	.	.	8Fny/J	.
*	*	*	*	*custos:c	*	*	*
!	!	!	!	!LO:LB:g=original	!	!	!
.	.	.	.	1c	.	2G/	.
!LO:TX:t=P:problem:kreska pseudotaktowa	!	!LO:TX:t=P:problem:kreska pseudotaktowa	!	!	!	!	!
2E\	.	2G/	-ne-	.	.	2.c\	.
=9-	=9-	=9-	=9-	=9-	=9-	=9-	=9-
*lig	*	*	*	*	*	*	*
1F	.	1A	-dic-	2c,<\	-nit	.	.
.	.	.	.	.	.	8d\L	.
.	.	.	.	.	.	8eny\J	.
!	!	!	!	!	!	!LO:TX:t=P:problem:kreska pseudotaktowa	!
.	.	.	.	1c	Be-	2f\	.
1C	.	2E/	-tus	.	.	2g\	-nit
!	!	!LO:TX:t=P:problem:kreska pseudotaktowa	!	!LO:TX:t=P:problem:kreska pseudotaktowa	!	!	!
.	.	2E/	qui	2G/	-ne-	1g\	Be-
*Xlig	*	*	*	*	*	*	*
=10-	=10-	=10-	=10-	=10-	=10-	=10-	=10-
1GG	-nit	4G/	ve-	1B-	-dic-	.	.
.	.	4A/	.	.	.	.	.
!	!	!	!	!	!	!LO:TX:t=P:problem:kreska pseudotaktowa	!
.	.	4B-/	.	.	.	2d\	-ne-
.	.	4c/	.	.	.	.	.
!	!	!LO:MO:mod=*null:null	!	!	!	!	!
*	*	*2\right	*	*	*	*	*
!LO:TX:t=P:problem:kreska pseudotaktowa	!	!	!	!	!LO:MO:mod=-tus	!	!
1D	qui	2d\	.	2A/	-t(us)	1f	-dic-
*	*	*	*	*	*ij	*	*
.	.	2D/	.	1A\	Be-	.	.
*custos:AA	*	*	*	*	*	*	*
!LO:LB:g=original	!	!	!	!	!	!	!
=11-	=11-	=11-	=11-	=11-	=11-	=11-	=11-
!	!	!LO:TX:t=P:problem:kreska pseudotaktowa	!	!	!	!	!
1AA	ve-	1E	-nit	.	.	2c#X/	-tus
*	*	*	*	*	*	*	*Xij
!	!	!	!	!LO:TX:t=P:problem:kreska pseudotaktowa	!	!LO:TX:t=P:problem:kreska pseudotaktowa	!
.	.	.	.	2E/	-ne-	2c#/	qui
*	*	*	*	*	*	*custos:d	*
*	*	*custos:A	*	*	*	*lig	*
!LO:TX:t=P:problem:kreska pseudotaktowa	!	!LO:LB:g=original	!	!	!	!LO:LB:g=original	!
1D	-nit	2r	.	1F	-dic-	1d	ve-
.	.	1A\	Be-	.	.	.	.
=12-	=12-	=12-	=12-	=12-	=12-	=12-	=12-
!	!	!	!	!	!LO:MO:mod=-tus	!	!
0r	.	.	.	2C#X/	-t(us)	1e	.
*	*	*	*	*	*Xij	*	*
!	!	!LO:TX:t=P:problem:kreska pseudotaktowa	!	!LO:TX:t=P:problem:kreska pseudotaktowa	!	!	!
.	.	2E/	-ne-	2C#/	qui	.	.
*	*	*	*	*lig	*	*Xlig	*
.	.	1Fny	-dic-	1D	ve-	1A	.
=13-	=13-	=13-	=13-	=13-	=13-	=13-	=13-
!	!	!	!	!	!	!LO:TX:t=P:problem:kreska pseudotaktowa	!
1r	.	2C#X/	-tus	1E	.	1A	-nit
.	.	2C#/	qui	.	.	.	.
*	*ij	*	*	*Xlig	*	*	*
1.D	Be-	(2.D/	ve-	2.F/	.	1A	qui
.	.	4E/	.	4G/	.	.	.
=14-	=14-	=14-	=14-	=14-	=14-	=14-	=14-
!	!	!LO:TX:t=P:problem:kreska pseudotaktowa	!	!LO:TX:t=P:problem:kreska pseudotaktowa	!LO:MO:mod=.	!	!
.	.	1F#X)	.	1A	-nit	2d\	ve-
!	!	!	!	!	!	!LO:TX:t=P:problem:kreska pseudotaktowa	!
2AA/	-ne-	.	.	.	.	2cny/	.
!	!	!	!	!	!LO:MO:null:mod=-nit	!	!
1BB-y	-dic-	2.G/	nit	2D/	.	1B-	.
*	*	*	*Xij	*	*	*	*
.	.	.	.	1d\	Be-	.	.
.	.	4G/	qui	.	.	.	.
=15-	=15-	=15-	=15-	=15-	=15-	=15-	=15-
1FF#X	-tus	1.A	ve-	.	.	1d	-nit
!	!	!	!	!LO:TX:t=P:problem:kreska pseudotaktowa	!	!	!
.	.	.	.	2A/	-ne-	.	.
!	!	!	!	!	!	!LO:TX:t=P:problem:kreska pseudotaktowa	!
1GG	qui	.	.	1B-	-dic-	1d	qui
!	!	!LO:TX:t=P:problem:kreska pseudotaktowa	!	!	!	!	!
.	.	2G/	.	.	.	.	.
=16-	=16-	=16-	=16-	=16-	=16-	=16-	=16-
!LO:TX:t=P:problem:kreska pseudotaktowa	!	!	!	!	!LO:MO:mod=-tus	!	!
0D	ve-	2A/	.	2F#X/	-t(us)	0d	ve-
!	!	!	!	!LO:TX:t=P:problem:kreska pseudotaktowa	!	!	!
.	.	2B-\	.	2G/	qui	.	.
.	.	4F#X/	.	4A/	ve-	.	.
.	.	4B-\	.	2G/	.	.	.
!	!	!LO:TX:t=P:problem:kreska pseudotaktowa	!	!	!	!	!
.	.	2A\	.	.	.	.	.
!	!	!	!	!LO:SIC:s=4F#	!	!	!
!	!	!	!	!LO:TX:t=P:problem:kreska pseudotaktowa	!	!	!
.	.	.	.	4F#X/	.	.	.
=17-	=17-	=17-	=17-	=17-	=17-	=17-	=17-
!	!	!LO:SIC:s=2B-	!	!LO:TX:t=P:problem:kreska pseudotaktowa	!	!LO:TX:t=P:problem:kreska pseudotaktowa	!
2GG/	-nit	2B-X\	-nit	1G	-nit	1d	-nit
*	*Xij	*	*	*	*	*	*
2G\	in	2B-\	in	.	.	.	.
1B-	no-	1d	no-	2r	.	2r	.
.	.	.	.	2d\	in	2f\	in
=18-	=18-	=18-	=18-	=18-	=18-	=18-	=18-
2A\	-mi-	2c\	-mi-	2.f\	no-	2.a\	no-
!LO:TX:t=P:problem:kreska pseudotaktowa	!	!LO:TX:t=P:problem:kreska pseudotaktowa	!	!	!	!	!
2F\	-ne	2d\	-ne	.	.	.	.
!	!	!	!	!LO:TX:t=P:problem:kreska pseudotaktowa	!	!	!
.	.	.	.	4f\	-mi-	4a\	-mi-
*lig	*	*lig	*	*	*	*	*
1G	Do-	1B-	Do-	2d\	-ne	2g\	-ne
.	.	.	.	4e\	Do-	1g\	Do-
.	.	.	.	4d\	.	.	.
=19-	=19-	=19-	=19-	=19-	=19-	=19-	=19-
1.A	.	1.A	.	4c#X\	.	.	.
.	.	.	.	4A\	.	.	.
!	!	!	!	!	!	!LO:TX:t=P:problem:kreska pseudotaktowa	!
.	.	.	.	1d	.	2f\	.
.	.	.	.	.	.	2.e\	.
*Xlig	*	*Xlig	*	*	*	*	*
!	!	!	!	!LO:SIC:s=2c#	!	!	!
!	!	!	!	!LO:TX:a:t=P:problem:# above	!	!	!
!LO:TX:t=P:problem:kreska pseudotaktowa	!	!LO:TX:t=P:problem:kreska pseudotaktowa	!	!LO:TX:t=P:problem:kreska pseudotaktowa	!	!	!
2A\	-mi-	2A/	-mi-	2c#X\	-mi-	.	.
.	.	.	.	.	.	4e\	-mi-
*	*	*	*	*custos:d	*	*	*
!	!	!	!	!LO:LB:g=original	!	!	!
=20-	=20-	=20-	=20-	=20-	=20-	=20-	=20-
!	!	!LO:SIC:s=2.A;	!	!LO:SIC:s=2.d;	!	!LO:SIC:s=2.d;	!
2.D;,</	-ni	2.A,</	-ni	2.d\	-ni	2.d\	-ni
!	!	!LO:TX:t=P:problem:kreska pseudotaktowa	!LO:MO:mod=Ho-	!LO:TX:t=P:problem:kreska pseudotaktowa	!	!LO:TX:t=P:problem:kreska pseudotaktowa	!
4D/	Ho-	4A/	O-	4F#X/	Ho-	4d\	Ho-
2GG/	-san-	4.G/	-ſan-	4.B-\	-san-	1d	-san-
.	.	8A/	-na	8A/	-na	.	.
4GG/	-na	4B-/	in	4G/	in	.	.
*	*ij	*	*	*	*	*	*
!LO:TX:t=P:problem:kreska pseudotaktowa	!	!LO:TX:t=P:problem:kreska pseudotaktowa	!	!LO:TX:t=P:problem:kreska pseudotaktowa	!	!	!
4D/	Ho-	4F#X/	ex-	4A/	ex-	.	.
=21-	=21-	=21-	=21-	=21-	=21-	=21-	=21-
!	!	!	!	!	!	!LO:TX:t=P:problem:kreska pseudotaktowa	!
2GG/	-san-	4.G/	-cel-	4.B-\	-cel-	1d	-na
.	.	8A/	.	8A/	.	.	.
4GG/	-na	4B-\	.	4G/	.	.	.
*	*Xij	*	*	*	*	*	*
!LO:TX:t=P:problem:kreska pseudotaktowa	!	!	!	!LO:TX:t=P:problem:kreska pseudotaktowa	!	!	!
4D/	Ho-	4A/	.	4F#X/	.	.	.
!	!	!LO:TX:t=P:problem:kreska pseudotaktowa	!	!	!	!	!
4.E-X\	-san-	1G	-ſis	2G/	-ſis	2r	.
8D/	-na	.	.	.	.	.	.
4C/	in	.	.	4r	.	4r	.
!LO:TX:t=P:problem:kreska pseudotaktowa	!	!	!	!	!	!	!
!LO:MO:mod=!null:null	!	!	!	!	!	!	!
!LO:N:acc=#	!	!	!	!LO:TX:t=P:problem:kreska pseudotaktowa	!	!LO:TX:t=P:problem:kreska pseudotaktowa	!
4BBn/	ex-	.	.	4d\	Ho-	4d\	Ho-
=22-	=22-	=22-	=22-	=22-	=22-	=22-	=22-
2C/	-cel-	1r	.	4.cny\	-ſan-	4.e-X\	-san-
.	.	.	.	8d\	-na	8d\	-na
4C/	-ſis	.	.	4e-X\	in	4c/	in
*	*ij	*	*	*	*	*	*
!	!	!	!	!	!	!LO:TX:t=P:problem:kreska pseudotaktowa	!
!	!	!	!	!	!	!LO:MO:mod=!null:null	!
!	!	!	!	!LO:TX:t=P:problem:kreska pseudotaktowa	!	!LO:N:acc=#	!
4G\	Ho-	.	.	4d\	ex-	4Bn/	ex-
*custos:A	*	*custos:c	*	*	*	*	*
!LO:LB:g=original	!	!LO:LB:g=original	!	!	!	!	!
4.A\	-san-	2r	.	4.c\	-cel-	4.c/	-cel-
8G\	-na	.	.	8B-\	.	16d\LL	.
.	.	.	.	.	.	16e-\JJ	.
*	*	*	*ij	*	*	*	*
!	!	!LO:TX:t=P:problem:kreska pseudotaktowa	!LO:MO:mod=Ho-	!	!	!	!
4F\	in	2c\	O-	4A/	.	4f\	.
!LO:TX:t=P:problem:kreska pseudotaktowa	!	!	!	!LO:TX:t=P:problem:kreska pseudotaktowa	!	!	!
4Eny\	ex-	.	.	4G/	.	8g\	-ſis
!	!	!	!	!	!	!LO:TX:t=P:problem:kreska pseudotaktowa	!LO:MO:mod=Ho-
.	.	.	.	.	.	8g\	O-
*	*	*	*	*	*	*custos:a	*
!	!	!	!	!	!	!LO:PB:g=original	!
=23-	=23-	=23-	=23-	=23-	=23-	=23-	=23-
2F\	-cel-	4.c\	-ſan-	4.Fny/	.	4.a\	-san-
.	.	8B-\	-na	8G/	.	8g\	-na
4F\	-ſis	4A/	in	4A\	-ſis	4f\	in
*	*	*	*	*	*ij	*	*
!LO:TX:t=P:problem:kreska pseudotaktowa	!	!LO:TX:t=P:problem:kreska pseudotaktowa	!	!LO:TX:t=P:problem:kreska pseudotaktowa	!	!LO:TX:t=P:problem:kreska pseudotaktowa	!
4C/	Ho-	4G/	ex-	4eny\	Ho-	4eny\	ex-
4.D/	-san-	2Fny/	-cel-	4.f\	-ſan-	4.d\	-cel-
8C/	-na	.	.	8e\	-na	8e\	.
4BB-y/	in	4F/	-ſis	4d\	in	4f\	-ſis
*	*	*	*	*	*	*	*ij
!LO:TX:t=P:problem:kreska pseudotaktowa	!	!LO:TX:t=P:problem:kreska pseudotaktowa	!LO:MO:mod=Ho-	!LO:TX:t=P:problem:kreska pseudotaktowa	!	!LO:TX:t=P:problem:kreska pseudotaktowa	!LO:MO:mod=Ho-
4AA/	ex-	4c\	O-	4c\	ex-	4f\	O-
=24-	=24-	=24-	=24-	=24-	=24-	=24-	=24-
2BB-/	-cel-	4.d\	-ſan-	4.B-\	-cel-	4.f\	-san-
.	.	8c\	-na	8c\	.	8e-X\	.
4BB-/	-ſis	4B-\	in	4d\	-ſis	4d\	-na
*	*Xij	*	*	*	*	*	*
!LO:TX:t=P:problem:kreska pseudotaktowa	!LO:MO:mod=Ho-	!LO:TX:t=P:problem:kreska pseudotaktowa	!	!LO:TX:t=P:problem:kreska pseudotaktowa	!	!LO:TX:t=P:problem:kreska pseudotaktowa	!
4F\	O-	4A/	ex-	4c\	Ho-	4f\	in
!	!	!	!	!	!	!LO:SIC:s=4.e-	!
2C/	-san-	4G/	-cel-	4.c\	-ſan-	4.e-X\	ex-
.	.	4G/	-ſis	.	.	.	.
.	.	.	.	8d\	-na	8d\	.
4C/	-na	4r	.	4e-X\	in	4c/	-cel-
*	*ij	*	*	*	*	*	*
!	!	!	!	!	!	!LO:TX:t=P:problem:kreska pseudotaktowa	!
!	!	!	!	!	!	!LO:TX:b:t=P:problem:# below	!
!	!	!	!	!	!	!LO:MO:mod=!null:null	!
!LO:TX:t=P:problem:kreska pseudotaktowa	!LO:MO:mod=Ho-	!LO:TX:t=P:problem:kreska pseudotaktowa	!LO:MO:mod=Ho-	!LO:TX:t=P:problem:kreska pseudotaktowa	!	!LO:N:acc=#	!
4GG/	O-	4d\	O-	4d\	ex-	4Bn/	.
=25-	=25-	=25-	=25-	=25-	=25-	=25-	=25-
2C/	-ſan-	4.e-X\	-ſan-	4.c\	-cel-	2c/	-ſis
.	.	8d\	-na	8d\	.	.	.
!	!	!	!	!	!	!LO:TX:t=P:problem:kreska pseudotaktowa	!
4C/	-na	4c\	in	4e-X\	.	2r	.
!	!	!LO:TX:t=P:problem:kreska pseudotaktowa	!	!	!	!	!
!	!	!LO:MO:mod=!null:null	!	!	!	!	!
!LO:TX:t=P:problem:kreska pseudotaktowa	!LO:MO:mod=Ho-	!LO:N:acc=#	!	!	!	!	!
4G\	O-	4Bn\	ex-	4d\	.	.	.
4.A\	-ſan-	4.c\	-cel-	2c\	-ſis	2r	.
*	*	*	*	*	*Xij	*	*
!	!	!LO:SIC:s=8B-	!	!	!	!	!
8G\	-na	8B-y\	.	.	.	.	.
*	*Xij	*	*	*	*	*	*
!	!	!	!	!LO:TX:t=P:problem:kreska pseudotaktowa	!	!	!
4F\	in	4A/	.	2r	.	4r	.
!LO:TX:t=P:problem:kreska pseudotaktowa	!	!LO:TX:t=P:problem:kreska pseudotaktowa	!	!	!	!LO:TX:t=P:problem:kreska pseudotaktowa	!LO:MO:mod=Ho-
4E\	ex-	4G/	.	.	.	4g\	O-
*	*	*	*	*custos:e	*	*	*
!	!	!	!	!LO:PB:g=original	!	!	!
=26-	=26-	=26-	=26-	=26-	=26-	=26-	=26-
4.F\	-cel-	4.F/	.	2r	.	4.a\	-san-
8E\	.	8G/	.	.	.	8g\	-na
!	!	!LO:TX:t=P:problem:kreska pseudotaktowa	!	!	!	!	!
4D/	-ſis	2A/	.	4r	.	4f\	in
*	*ij	*	*	*	*	*	*
!LO:TX:t=P:problem:kreska pseudotaktowa	!	!	!	!	!	!	!
!LO:TX:b:t=P:problem:# below	!LO:MO:mod=Ho-	!	!	!LO:TX:t=P:problem:kreska pseudotaktowa	!	!LO:TX:t=P:problem:kreska pseudotaktowa	!
4C#X/	O-	.	.	4eny\	Ho-	4eny\	ex-
4.D/	-san-	2A/	-ſis	4.f\	-san-	4.d\	-cel-
8Cny/	-na	.	.	8e\	-na	8e\	.
4BB-/	in	4r	.	4d\	in	4f\	-ſis
!	!	!LO:TX:t=P:problem:kreska pseudotaktowa	!LO:MO:mod=Ho-	!LO:TX:t=P:problem:kreska pseudotaktowa	!	!	!
4AA/	ex-	4A/	O-	4c\	ex-	8.f#X\	in
!	!	!	!	!	!	!LO:TX:t=P:problem:kreska pseudotaktowa	!
.	.	.	.	.	.	16f#\	ex-
=27-	=27-	=27-	=27-	=27-	=27-	=27-	=27-
1GG	-cel-	4.B-\	-ſan-	4.d\	-cel-	(2g\	-cel-
.	.	8A/	-na	8c\L	.	.	.
.	.	8G/	in	8B-\	.	2d\)	.
.	.	8A/	ex-	8A\J	.	.	.
.	.	4B-\	-cel-	4G/	.	.	.
!LO:MO:mod=!LO&colon;N&colon;vis=0	!	!LO:MO:mod=!LO&colon;N&colon;vis=0	!	!LO:MO:mod=!LO&colon;N&colon;vis=0	!	!LO:MO:mod=!LO&colon;N&colon;vis=0	!
!null	!LO:MO:mod=sis.	!null	!LO:MO:mod=sis.	!LO:SIC:s=1F#;	!LO:MO:mod=sis.	!LO:SIC:s=1d;	!LO:MO:mod=sis.
1Dl;	-ſis	1Al;	-ſis	1F#Xl;;	-ſis	1dl;;	-ſis
*	*Xij	*	*Xij	*	*	*	*Xij
==	==	==	==	==	==	==	==
*-	*-	*-	*-	*-	*-	*-	*-
!!!system-decoration: [(*)]
!!!RDF**kern: < = below
!!LO:MO:ori
!!!RDF**kern: l = terminal long
!!LO:MO:end
!!!filter-modern: shed -k -e "s/,//D" | shed -e "s/TX(.*):t=P:/tx$1:t=P:/LG" | sic -sq | modori -m | autostem -r | tie -s | humtr -p | shed -e "s/-//B" | shed -e "s/^custos:/Xcustos:/I" | shed -k -e "s/[<>]//g"
!!!ENC: Berenika Jozajtis
!!!END: 2022-05-04
!!!ENC: Andrzej Kubiczek
!!!END: 2022-05-14
!!!ENC-modern: Andrzej Kubiczek
!!!END-modern: 2022-06-26
